X: 1
T: Sporting Jamie
R: strathspey
S: handwritten MS by Barbara McOwen labelled "Edcath"
Z: 2006 John Chambers <jc:trillian.mit.edu>
M: C
L: 1/16
K: D
a \
| "D"f4  e3d     fa3 a4  | "G"g3e          (3f2e2d2 "A7"ce3 ea3 \
| "D"f4  e3d "Bm"fa3 a3A | "G"(3B2c2d2 "A7"(3c2d2e2  "D"fd3 d3 :|
A \
| "D"d3e f3d     fa3 f3d | "Em"g3e     "E7"(3f2e2d2 "A7"ce3 ea3 \
| "D"d3e f3d "Bm"fa3 f3d | "G"(3B2c2d2 "A7"(3c2d2e2  "D"fd3 d3 :|
